public/svgs/duotone/cloud-fog.svg

<svg xmlns="http://www.w3.org/2000/svg" viewBox="0 0 640 512"><!-- Font Awesome Pro 6.0.0-alpha2 by @fontawesome - https://fontawesome.com License - https://fontawesome.com/license (Commercial License) --><defs><style>.fa-secondary{opacity:.4}</style></defs><path d="M576 400V400C576 386.8 565.2 376 552 376H24C10.8 376 0 386.8 0 400V400C0 413.2 10.8 424 24 424H552C565.2 424 576 413.2 576 400ZM200 464H88C74.8 464 64 474.8 64 488V488C64 501.2 74.8 512 88 512H200C213.2 512 224 501.2 224 488V488C224 474.8 213.2 464 200 464ZM616 464H296C282.8 464 272 474.8 272 488V488C272 501.2 282.8 512 296 512H616C629.2 512 640 501.2 640 488V488C640 474.8 629.2 464 616 464Z" class="fa-secondary"/><path d="M160 320H480C533 320 576 277 576 224S533 128 480 128C479.375 128 478.875 128.25 478.375 128.25C479.5 123 480 117.625 480 112C480 67.75 444.25 32 400 32C375.375 32 353.75 43.25 339 60.75C320.375 24.75 283.25 0 240 0C178.125 0 128 50.125 128 112C128 119.25 128.75 126.25 130.125 133.25C91.75 145.75 64 181.5 64 224C64 277 107 320 160 320Z" class="fa-primary"/></svg>

<svg xmlns="http://www.w3.org/2000/svg" viewBox="0 0 640 512"><!--! Font Awesome Pro 6.5.1 by @fontawesome - https://fontawesome.com License - https://fontawesome.com/license (Commercial License) Copyright 2023 Fonticons, Inc. --><defs><style>.fa-secondary{opacity:.4}</style></defs><path class="fa-secondary" d="M24 368c-13.3 0-24 10.7-24 24s10.7 24 24 24H552c13.3 0 24-10.7 24-24s-10.7-24-24-24H24zm64 96c-13.3 0-24 10.7-24 24s10.7 24 24 24H200c13.3 0 24-10.7 24-24s-10.7-24-24-24H88zm208 0c-13.3 0-24 10.7-24 24s10.7 24 24 24H616c13.3 0 24-10.7 24-24s-10.7-24-24-24H296z"/><path class="fa-primary" d="M64 224c0 53 43 96 96 96H480c53 0 96-43 96-96s-43-96-96-96c-.5 0-1.1 0-1.6 0c1.1-5.2 1.6-10.5 1.6-16c0-44.2-35.8-80-80-80c-24.3 0-46.1 10.9-60.8 28C320.5 24.3 283.1 0 240 0C178.1 0 128 50.1 128 112c0 7.1 .7 14.1 1.9 20.8C91.6 145.4 64 181.5 64 224z"/></svg>
